svgs/nays.svg

<svg xmlns="http://www.w3.org/2000/svg" viewBox="0 0 192 192"><path d="M94.086 140.908c-7.805-7.903-10.144-11.054-9.196-12.391.699-.987 6.844-8.157 13.656-15.934 11.121-12.696 26.446-33.537 26.446-35.964 0-.515-2.369-3.251-5.265-6.078-2.896-2.828-5.265-5.839-5.265-6.691 0-1.842 13.517-12.354 18.902-14.7 9.35-4.072 15.842-.957 30.956 14.852 6.681 6.988 11.933 13.349 11.671 14.135-.262.787-1.613 2.064-3.001 2.84-1.388.776-3.13 2.037-3.87 2.802-.741.765-3.716 3.105-6.612 5.2-12.834 9.283-37.668 34.581-44.073 44.895-1.073 1.728-2.405 3.141-2.962 3.141-.556 0-1.011.694-1.011 1.542 0 .848-.984 2.629-2.187 3.958-1.203 1.329-2.832 3.698-3.62 5.265-.788 1.566-2.034 3.046-2.768 3.288-.734.241-6.045-4.33-11.801-10.16Zm-51.418 1.646c-3.636-2.042-25.735-24.063-26.661-26.567-.215-.579 4.876-5.207 11.313-10.284 12.778-10.079 24.184-20.182 28.464-25.212 1.504-1.767 3.939-4.433 5.412-5.924 4.138-4.188 15.453-19.056 20.346-26.733 2.422-3.801 5.084-6.911 5.915-6.911.831 0 3.441 2.222 5.801 4.937 2.36 2.714 8.861 9.674 14.447 15.466 14.345 14.875 13.916 14.14 11.273 19.322-8.924 17.493-46.308 57.296-58.876 62.686-5.157 2.211-12.71 1.873-17.434-.78Z"/></svg>

<svg
    xmlns="http://www.w3.org/2000/svg"
    viewBox="0 0 192 192"
    id="vector">
    <g id="group">
        <path
            id="path_6"
            d="M 94.086 140.908 C 86.281 133.005 83.942 129.854 84.89 128.517 C 85.589 127.53 91.734 120.36 98.546 112.583 C 109.667 99.887 124.992 79.046 124.992 76.619 C 124.992 76.104 122.623 73.368 119.727 70.541 C 116.831 67.713 114.462 64.702 114.462 63.85 C 114.462 62.008 127.979 51.496 133.364 49.15 C 142.714 45.078 149.206 48.193 164.32 64.002 C 171.001 70.99 176.253 77.351 175.991 78.137 C 175.729 78.924 174.378 80.201 172.99 80.977 C 171.602 81.753 169.86 83.014 169.12 83.779 C 168.379 84.544 165.404 86.884 162.508 88.979 C 149.674 98.262 124.84 123.56 118.435 133.874 C 117.362 135.602 116.03 137.015 115.473 137.015 C 114.917 137.015 114.462 137.709 114.462 138.557 C 114.462 139.405 113.478 141.186 112.275 142.515 C 111.072 143.844 109.443 146.213 108.655 147.78 C 107.867 149.346 106.621 150.826 105.887 151.068 C 105.153 151.309 99.842 146.738 94.086 140.908 Z M 42.668 142.554 C 39.032 140.512 16.933 118.491 16.007 115.987 C 15.792 115.408 20.883 110.78 27.32 105.703 C 40.098 95.624 51.504 85.521 55.784 80.491 C 57.288 78.724 59.723 76.058 61.196 74.567 C 65.334 70.379 76.649 55.511 81.542 47.834 C 83.964 44.033 86.626 40.923 87.457 40.923 C 88.288 40.923 90.898 43.145 93.258 45.86 C 95.618 48.574 102.119 55.534 107.705 61.326 C 122.05 76.201 121.621 75.466 118.978 80.648 C 110.054 98.141 72.67 137.944 60.102 143.334 C 54.945 145.545 47.392 145.207 42.668 142.554 Z"
            fill="#000000"
            stroke-width="12"/>
    </g>
</svg>
